symbols/web/no_sim/materialsymbolsoutlined/no_sim_wght700gradN25fill1_48px.svg

<svg xmlns="http://www.w3.org/2000/svg" height="48" width="48"><path d="M41.1 35.85 13.85 8.65l5.7-5.7h16.9q1.95 0 3.3 1.35 1.35 1.35 1.35 3.25Zm2.6 11.55L32.1 35.8l2.35-2.4 6.65 6.55v.65q0 1.85-1.375 3.125T36.45 45h-24.9q-1.9 0-3.225-1.35Q7 42.3 7 40.4V15.8l2.55-2.5-8.1-8.1 2.4-2.35L46.1 45Z"/></svg>

<svg xmlns="http://www.w3.org/2000/svg" height="48" width="48"><path d="M41.1 35.85 13.85 8.65 19.55 2.95H36.45Q38.4 2.95 39.75 4.3Q41.1 5.65 41.1 7.55ZM43.7 47.4 39.55 43.35Q38.85 44.15 37.825 44.575Q36.8 45 35.45 45H11.55Q9.65 45 8.325 43.675Q7 42.35 7 40.4V15.8L9.55 13.3L1.45 5.2L3.85 2.85L46.1 45Z"/></svg>
